img/footer-bottom.svg

<svg width="1600" height="271" viewBox="0 0 1600 271" fill="none" xmlns="http://www.w3.org/2000/svg">
<path d="M26.6917 270.752V229.334H121.8V186.996H120.266C115.971 193.336 109.528 198.654 100.937 202.949C92.3471 207.245 82.3249 209.392 70.871 209.392C57.7808 209.392 45.8156 206.12 34.9753 199.575C24.3395 192.825 15.8514 183.416 9.51083 171.349C3.17028 159.077 0 144.964 0 129.01C0 113.261 3.27254 99.2506 9.81763 86.9786C16.5672 74.7065 25.4645 65.1957 36.5093 58.4461C47.7587 51.6965 59.8262 48.3217 72.7118 48.3217C84.3702 48.3217 94.4947 50.7761 103.085 55.6849C111.88 60.3892 118.527 66.4229 123.027 73.7861H124.561V52.0033H169.661V270.752H26.6917ZM85.9042 167.974C93.0629 167.974 99.3012 166.44 104.619 163.372C110.142 160.304 114.334 155.907 117.198 150.18C120.266 144.248 121.8 137.192 121.8 129.01C121.8 120.829 120.266 113.773 117.198 107.841C114.334 101.91 110.142 97.4098 104.619 94.3418C99.3012 91.2738 93.0629 89.7398 85.9042 89.7398C78.541 89.7398 72.0982 91.2738 66.5758 94.3418C61.0534 97.4098 56.7582 101.91 53.6902 107.841C50.6221 113.773 49.0881 120.829 49.0881 129.01C49.0881 137.192 50.6221 144.248 53.6902 150.18C56.7582 155.907 61.0534 160.304 66.5758 163.372C72.0982 166.44 78.541 167.974 85.9042 167.974Z" fill="url(#paint0_linear_98_1144)"/>
<path d="M283.661 214.608C267.503 214.608 252.777 211.028 239.482 203.87C226.392 196.507 216.063 186.484 208.495 173.803C200.927 161.122 197.144 147.009 197.144 131.465C197.144 115.716 200.927 101.5 208.495 88.8194C216.063 76.1383 226.392 66.2184 239.482 59.0597C252.777 51.901 267.503 48.3217 283.661 48.3217C299.615 48.3217 314.035 51.7987 326.92 58.7529C340.01 65.707 350.339 75.7292 357.907 88.8194C365.679 101.91 369.566 117.25 369.566 134.84C369.566 136.476 369.566 138.317 369.566 140.362C369.566 142.203 369.566 143.941 369.566 145.578H222.915V114.897H333.363L321.705 122.874C321.091 115.716 319.046 109.58 315.569 104.466C312.296 99.1483 307.899 95.1599 302.376 92.501C297.058 89.6375 290.922 88.2058 283.968 88.2058C275.991 88.2058 269.037 89.9443 263.106 93.4214C257.379 96.6939 252.981 101.603 249.913 108.148C246.845 114.693 245.311 122.465 245.311 131.465C245.311 140.464 246.845 148.236 249.913 154.782C252.981 161.327 257.379 166.338 263.106 169.815C269.037 173.087 275.991 174.724 283.968 174.724C291.945 174.724 298.592 173.394 303.91 170.735C309.228 168.076 313.626 164.088 317.103 158.77H366.191C363.123 169.815 357.6 179.632 349.624 188.223C341.851 196.609 332.238 203.154 320.784 207.858C309.33 212.358 296.956 214.608 283.661 214.608Z" fill="url(#paint1_linear_98_1144)"/>
<path d="M410.536 210.926V13.0396H458.396V169.508H504.417V210.926H410.536ZM378.321 92.8078V54.4577H496.747V92.8078H378.321Z" fill="url(#paint2_linear_98_1144)"/>
<path d="M584.746 214.608C571.86 214.608 559.793 211.233 548.543 204.483C537.498 197.734 528.601 188.018 521.852 175.337C515.306 162.656 512.034 148.032 512.034 131.465C512.034 114.897 515.306 100.273 521.852 87.5922C528.601 74.9111 537.498 65.1957 548.543 58.4461C559.793 51.6965 571.86 48.3217 584.746 48.3217C596.404 48.3217 606.631 50.7761 615.426 55.6849C624.425 60.5937 631.175 66.6274 635.675 73.7861H637.209V52.0033H682.308V210.926H637.209V189.143H635.675C631.175 196.507 624.528 202.643 615.733 207.551C606.938 212.256 596.609 214.608 584.746 214.608ZM598.245 173.19C605.404 173.19 611.744 171.553 617.267 168.281C622.789 164.804 626.982 159.997 629.845 153.861C632.913 147.521 634.447 140.055 634.447 131.465C634.447 122.874 632.913 115.511 629.845 109.375C626.982 103.034 622.789 98.2279 617.267 94.9554C611.744 91.4783 605.404 89.7398 598.245 89.7398C590.677 89.7398 584.03 91.4783 578.303 94.9554C572.78 98.2279 568.485 103.034 565.417 109.375C562.554 115.511 561.122 122.874 561.122 131.465C561.122 140.055 562.554 147.521 565.417 153.861C568.485 159.997 572.78 164.804 578.303 168.281C584.03 171.553 590.677 173.19 598.245 173.19Z" fill="url(#paint3_linear_98_1144)"/>
<path d="M794.614 214.761H757.798L764.241 177.945H801.364L794.614 214.761Z" fill="url(#paint4_linear_98_1144)"/>
<path d="M904.607 214.761H857.36L838.031 60.4398H870.859L884.358 175.49H891.414L946.332 60.4398H988.67L1003.4 175.49H1010.15L1064.45 60.4398H1100.04L1026.41 214.761H979.159L964.74 103.085H957.99L904.607 214.761Z" fill="url(#paint5_linear_98_1144)"/>
<path d="M1184.09 218.135C1168.75 218.135 1154.84 214.965 1142.36 208.625C1130.09 202.284 1120.48 193.489 1113.52 182.24C1106.57 170.786 1103.09 157.9 1103.09 143.583C1103.09 128.038 1107.08 113.721 1115.06 100.631C1123.03 87.336 1133.98 76.8025 1147.89 69.0302C1161.79 61.0534 1177.34 57.065 1194.52 57.065C1209.86 57.065 1223.67 60.2353 1235.94 66.5758C1248.21 72.9164 1257.82 81.8136 1264.78 93.2675C1271.73 104.517 1275.21 117.3 1275.21 131.618C1275.21 146.958 1271.22 161.275 1263.24 174.57C1255.27 187.864 1244.32 198.5 1230.42 206.477C1216.51 214.249 1201.06 218.135 1184.09 218.135ZM1185.62 188.989C1196.87 188.989 1206.89 186.535 1215.69 181.626C1224.48 176.513 1231.34 169.763 1236.24 161.377C1241.15 152.787 1243.61 143.583 1243.61 133.765C1243.61 119.652 1238.8 108.198 1229.19 99.4035C1219.78 90.6085 1207.61 86.2111 1192.68 86.2111C1181.63 86.2111 1171.71 88.7677 1162.92 93.8811C1154.12 98.7899 1147.27 105.54 1142.36 114.13C1137.45 122.516 1135 131.618 1135 141.435C1135 155.548 1139.7 167.002 1149.11 175.797C1158.52 184.592 1170.69 188.989 1185.62 188.989Z" fill="url(#paint6_linear_98_1144)"/>
<path d="M1296.85 214.761L1324.16 60.4398H1352.08L1352.39 74.2458H1354.23C1358.73 69.337 1363.33 65.8599 1368.03 63.8146C1372.74 61.5647 1378.57 60.4398 1385.52 60.4398H1421.42L1416.51 89.8927H1381.53C1371.71 89.8927 1363.63 92.4493 1357.29 97.5627C1351.16 102.676 1347.27 110.039 1345.64 119.652L1328.76 214.761H1296.85Z" fill="url(#paint7_linear_98_1144)"/>
<path d="M1457.03 214.761H1425.12L1463.17 0H1495.07L1472.06 130.697L1556.43 60.4398H1600L1505.2 137.754L1573 214.761H1532.5L1469.92 141.435L1457.03 214.761Z" fill="url(#paint8_linear_98_1144)"/>
<defs>
<linearGradient id="paint0_linear_98_1144" x1="286.783" y1="52.5409" x2="286.783" y2="542.262" gradientUnits="userSpaceOnUse">
<stop stop-color="#050614"/>
<stop offset="1" stop-color="#16183A"/>
</linearGradient>
<linearGradient id="paint1_linear_98_1144" x1="286.783" y1="52.5409" x2="286.783" y2="542.262" gradientUnits="userSpaceOnUse">
<stop stop-color="#050614"/>
<stop offset="1" stop-color="#16183A"/>
</linearGradient>
<linearGradient id="paint2_linear_98_1144" x1="286.783" y1="52.5409" x2="286.783" y2="542.262" gradientUnits="userSpaceOnUse">
<stop stop-color="#050614"/>
<stop offset="1" stop-color="#16183A"/>
</linearGradient>
<linearGradient id="paint3_linear_98_1144" x1="286.783" y1="52.5409" x2="286.783" y2="542.262" gradientUnits="userSpaceOnUse">
<stop stop-color="#050614"/>
<stop offset="1" stop-color="#16183A"/>
</linearGradient>
<linearGradient id="paint4_linear_98_1144" x1="1111.79" y1="33.4351" x2="1111.79" y2="447.949" gradientUnits="userSpaceOnUse">
<stop stop-color="#050614"/>
<stop offset="1" stop-color="#16183A"/>
</linearGradient>
<linearGradient id="paint5_linear_98_1144" x1="1111.79" y1="33.4351" x2="1111.79" y2="447.949" gradientUnits="userSpaceOnUse">
<stop stop-color="#050614"/>
<stop offset="1" stop-color="#16183A"/>
</linearGradient>
<linearGradient id="paint6_linear_98_1144" x1="1111.79" y1="33.4351" x2="1111.79" y2="447.949" gradientUnits="userSpaceOnUse">
<stop stop-color="#050614"/>
<stop offset="1" stop-color="#16183A"/>
</linearGradient>
<linearGradient id="paint7_linear_98_1144" x1="1111.79" y1="33.4351" x2="1111.79" y2="447.949" gradientUnits="userSpaceOnUse">
<stop stop-color="#050614"/>
<stop offset="1" stop-color="#16183A"/>
</linearGradient>
<linearGradient id="paint8_linear_98_1144" x1="1111.79" y1="33.4351" x2="1111.79" y2="447.949" gradientUnits="userSpaceOnUse">
<stop stop-color="#050614"/>
<stop offset="1" stop-color="#16183A"/>
</linearGradient>
</defs>
</svg>

<svg xmlns="http://www.w3.org/2000/svg" width="1600" height="271" fill="none"><path fill="url(#a)" d="M26.692 270.752v-41.418H121.8v-42.338h-1.534q-6.443 9.51-19.329 15.953-12.885 6.443-30.066 6.443-19.635 0-35.896-9.817-15.953-10.125-25.464-28.226Q0 152.941 0 129.01q0-23.624 9.818-42.031Q19.943 68.57 36.509 58.446q16.875-10.125 36.203-10.124 17.487 0 30.373 7.363 13.192 7.056 19.942 18.101h1.534V52.003h45.1v218.749zm59.212-102.778q10.738 0 18.715-4.602 8.284-4.602 12.579-13.192 4.602-8.897 4.602-21.17 0-12.271-4.602-21.169-4.295-8.896-12.579-13.5-7.977-4.6-18.715-4.601-11.045 0-19.328 4.602-8.284 4.602-12.886 13.499t-4.602 21.169 4.602 21.17q4.602 8.59 12.886 13.192t19.328 4.602"/><path fill="url(#b)" d="M283.661 214.608q-24.237 0-44.179-10.738-19.635-11.045-30.987-30.067t-11.351-42.338q0-23.624 11.351-42.646 11.352-19.02 30.987-29.76 19.942-10.737 44.179-10.737 23.931 0 43.259 10.43 19.635 10.432 30.987 30.067 11.658 19.636 11.659 46.021v10.738H222.915v-30.681h110.448l-11.658 7.977q-.92-10.737-6.136-18.408-4.909-7.977-13.193-11.965-7.977-4.296-18.408-4.295-11.965 0-20.862 5.215-8.59 4.91-13.193 14.727t-4.602 23.317q0 13.498 4.602 23.317 4.602 9.817 13.193 15.033 8.896 4.909 20.862 4.909t19.942-3.989 13.193-11.965h49.088q-4.603 16.567-16.567 29.453-11.66 12.579-28.84 19.635-17.18 6.75-37.123 6.75"/><path fill="url(#c)" d="M410.536 210.926V13.04h47.86v156.468h46.021v41.418zM378.321 92.808v-38.35h118.426v38.35z"/><path fill="url(#d)" d="M584.746 214.608q-19.329 0-36.203-10.125-16.567-10.124-26.691-29.146-9.819-19.022-9.818-43.872 0-24.852 9.818-43.873 10.123-19.02 26.691-29.146 16.874-10.125 36.203-10.124 17.487 0 30.68 7.363 13.499 7.363 20.249 18.101h1.534V52.003h45.099v158.923h-45.099v-21.783h-1.534q-6.75 11.046-19.942 18.408-13.193 7.057-30.987 7.057m13.499-41.418q10.738 0 19.022-4.909 8.283-5.216 12.578-14.42 4.602-9.51 4.602-22.396t-4.602-22.09q-4.295-9.511-12.578-14.42-8.284-5.215-19.022-5.215-11.352 0-19.942 5.215-8.284 4.909-12.886 14.42-4.295 9.204-4.295 22.09t4.295 22.396q4.602 9.204 12.886 14.42 8.59 4.908 19.942 4.909"/><path fill="url(#e)" d="M794.614 214.761h-36.816l6.443-36.816h37.123z"/><path fill="url(#f)" d="M904.607 214.761H857.36L838.031 60.44h32.828l13.499 115.05h7.056l54.918-115.05h42.338l14.73 115.05h6.75l54.3-115.05h35.59l-73.63 154.321h-47.251L964.74 103.085h-6.75z"/><path fill="url(#g)" d="M1184.09 218.135q-23.01 0-41.73-9.51c-12.27-6.341-21.88-15.136-28.84-26.385-6.95-11.454-10.43-24.34-10.43-38.657q0-23.317 11.97-42.952c7.97-13.295 18.92-23.829 32.83-31.6 13.9-7.978 29.45-11.966 46.63-11.966 15.34 0 29.15 3.17 41.42 9.51 12.27 6.341 21.88 15.239 28.84 26.692 6.95 11.25 10.43 24.033 10.43 38.351q0 23.01-11.97 42.952c-7.97 13.294-18.92 23.93-32.82 31.907-13.91 7.772-29.36 11.658-46.33 11.658m1.53-29.146c11.25 0 21.27-2.454 30.07-7.363 8.79-5.113 15.65-11.863 20.55-20.249 4.91-8.59 7.37-17.794 7.37-27.612 0-14.113-4.81-25.567-14.42-34.361q-14.115-13.193-36.51-13.193-16.575 0-29.76 7.67c-8.8 4.909-15.65 11.659-20.56 20.249-4.91 8.386-7.36 17.488-7.36 27.305 0 14.113 4.7 25.567 14.11 34.362q14.115 13.192 36.51 13.192"/><path fill="url(#h)" d="m1296.85 214.761 27.31-154.321h27.92l.31 13.806h1.84q6.75-7.363 13.8-10.431 7.065-3.375 17.49-3.375h35.9l-4.91 29.453h-34.98q-14.73 0-24.24 7.67c-6.13 5.113-10.02 12.476-11.65 22.089l-16.88 95.109z"/><path fill="url(#i)" d="M1457.03 214.761h-31.91L1463.17 0h31.9l-23.01 130.697 84.37-70.257H1600l-94.8 77.314 67.8 77.007h-40.5l-62.58-73.326z"/><defs><linearGradient id="a" x1="286.783" x2="286.783" y1="52.541" y2="542.262" gradientUnits="userSpaceOnUse"><stop stop-color="#050614"/><stop offset="1" stop-color="#16183A"/></linearGradient><linearGradient id="b" x1="286.783" x2="286.783" y1="52.541" y2="542.262" gradientUnits="userSpaceOnUse"><stop stop-color="#050614"/><stop offset="1" stop-color="#16183A"/></linearGradient><linearGradient id="c" x1="286.783" x2="286.783" y1="52.541" y2="542.262" gradientUnits="userSpaceOnUse"><stop stop-color="#050614"/><stop offset="1" stop-color="#16183A"/></linearGradient><linearGradient id="d" x1="286.783" x2="286.783" y1="52.541" y2="542.262" gradientUnits="userSpaceOnUse"><stop stop-color="#050614"/><stop offset="1" stop-color="#16183A"/></linearGradient><linearGradient id="e" x1="1111.79" x2="1111.79" y1="33.435" y2="447.949" gradientUnits="userSpaceOnUse"><stop stop-color="#050614"/><stop offset="1" stop-color="#16183A"/></linearGradient><linearGradient id="f" x1="1111.79" x2="1111.79" y1="33.435" y2="447.949" gradientUnits="userSpaceOnUse"><stop stop-color="#050614"/><stop offset="1" stop-color="#16183A"/></linearGradient><linearGradient id="g" x1="1111.79" x2="1111.79" y1="33.435" y2="447.949" gradientUnits="userSpaceOnUse"><stop stop-color="#050614"/><stop offset="1" stop-color="#16183A"/></linearGradient><linearGradient id="h" x1="1111.79" x2="1111.79" y1="33.435" y2="447.949" gradientUnits="userSpaceOnUse"><stop stop-color="#050614"/><stop offset="1" stop-color="#16183A"/></linearGradient><linearGradient id="i" x1="1111.79" x2="1111.79" y1="33.435" y2="447.949" gradientUnits="userSpaceOnUse"><stop stop-color="#050614"/><stop offset="1" stop-color="#16183A"/></linearGradient></defs></svg>
